X: 1
T: Mr. Danger
C: By Larry Unger 1997
R: reel
Z: 2012 John Chambers <jc:trillian.mit.edu>
B: the Portland Collection v.2 p.132
M: C|
L: 1/8
K: Gdor
DB, |:\
"Gm"G,2B,G, "(Bb)"D2B,D | "C"CDEC "(D)"DEDC |\
"Gm"G,G,B,G, DG,B,G, | "C"CB,CD "D"CB,A,B, |
"Gm"G,2B,G, "(Bb)"D2B,D | "C"CDEC "(D)"DEDC |\
"Gm"DGBG AGFD | "F"FGAF "Gm"G2z2 :|
|:\
"Gm"G,B,DG "(F)"BGAB | "(Eb)"d^cdA "(D)"BAGD |\
"Gm"G,B,DG BGAB | "F"cAGA "Dm"F2FD |
"Gm"G,B,DG "(F)"BGAB | "(Eb)"d^cdA "(D)"BAGB |\
"F(Gm)"AGAB "(F)"cBAF |1 "(D)"GDB,D "G"G,2z2 :|2 "(D)"GDB,D "Gm"G,2 |]
